!!!OTL: Dui huadeng, 2)
!!!ARE: Asia, China,ÿHenan, Zhenping
!! IV, 155
!!!SCT: C1661B
!!!YEM: Copyright 1995, estate of Helmut Schaffrath.
**kern
*ICvox
*Ivox
*M2/4
*k[f#]
*G:
{4g
4g
=1
8dd
16dd
16b
8a
8g
=2
16a
16g
8g
4g}
=3
{8d
8g
8g
8g
=4
16a
16g
8g
4g}
=5
{8g
8a
8dd
16ee
16dd
=6
8dd
8cc#
8a
8a
=7
8a
16a
16g
4g}
==
!!!AGN: Wuge
!!!AMT: simple duple
!!!AIN: vox
!!!EED: Helmut Schaffrath
!!!EEV: 1.0
*-
